X:398
T:Jingle Bells
C:J. Pierpont
M:2/4
L:1/8
K:G
DB AG | D3 D/D/ | DB AG | E4 | 
Ec BA | F4 | dd cA | B4 | 
DB AG | D3 D/D/ | DB AG | E4 | 
Ec BA | dd dd | ed cA | G2 d2 || 
|: BB B2 | BB B2 | Bd G>A | B4 | 
cc c>c | cB B B/B/ |1 BA AB | A2 d2 ||2 dd cA | G4 || 

